X:8
T: Lad O'Beirne
M: 6/8
R: jig
K: D
"D"d2F AGF| d2F AGF| "A"A,CE GFE| A,CE GFE|
"D"DFA "G"G2B| "A"Adc "D"d2e| fed cBA| "A"GFE "D" D3:|
|:"D"f=f^f a^ga| f2d de=f| "C"e=ce gfg| "A"e2^c cde|
"D"f=f^f "G"gfg| "D"agf "A"efg| "D"fed cBA| "A"GFE "D" D3:|
%%text Roaring Jelly  J-37

